X:1
T:The Blind Beggar's Daughter
M:3/4
L:1/4
K:C
 G| F E D| C C G| F D G| C2 G| A B c| d G c| c B A| G2 A| G c G| A B c|\
 c B A| G2 G/2G/2| A A G| F D E| C A, B,| C2||
